packages/core/src/svgs/tokens/mono/NODL.svg

<svg width="24" height="24" viewBox="0 0 24 24" fill="none" xmlns="http://www.w3.org/2000/svg">
<path d="M20.4379 5.61313C19.2617 4.40751 17.515 3.76648 15.3802 3.76648C12.8748 3.76648 11.4399 5.29556 11.4105 7.7362V9.86517H12.5867V7.76561C12.6044 6.73054 13.0984 5.53079 14.3039 5.53079H14.3275C15.3449 5.54844 16.133 6.23653 16.1153 7.29512C16.0977 8.39488 15.1979 9.09473 14.0864 9.05944H12.9101L12.8983 9.86517L14.0746 9.88863H14.1333C14.5834 9.90002 15.0293 9.79902 15.4304 9.59456C15.8315 9.39009 16.1752 9.08879 16.4305 8.71791C16.6857 8.34705 16.8444 7.91834 16.892 7.47066C16.9397 7.02299 16.8748 6.57049 16.7034 6.15419L16.6446 6.01304L16.7387 6.12479C17.128 6.61397 17.3358 7.22286 17.3268 7.84795C17.3032 9.30062 16.133 10.2357 14.7156 10.2357H7.75832C6.58211 10.2357 5.44706 10.7884 4.58843 11.6295C3.89713 12.3019 3.43315 13.1734 3.26127 14.1224C3.08941 15.0713 3.21825 16.0503 3.62982 16.9224L3.59452 16.9401C3.03749 16.1586 2.74861 15.2178 2.77117 14.2583C2.78822 13.0821 3.26944 11.9605 4.10995 11.1375C4.95048 10.3146 6.08218 9.85721 7.25843 9.86517H10.8224V9.05944H7.17022C5.83521 9.05944 4.55313 9.62996 3.58276 10.5709C2.59083 11.5367 2.02198 12.8563 2.00075 14.2407C1.97723 15.9698 2.50653 17.4987 3.51219 18.5338C4.60019 19.6512 6.19396 20.2335 8.25821 20.2335C9.65199 20.2335 10.7107 19.8041 11.434 18.9514C12.0044 18.2692 12.569 17.3165 12.5867 16.2696V13.7643H11.4105V16.2402C11.3987 16.8048 10.9518 17.3576 10.6341 17.7575C10.4799 17.964 10.2792 18.1312 10.0483 18.2456C9.81734 18.3601 9.56279 18.4185 9.30508 18.4162C8.8293 18.4388 8.36018 18.2978 7.97592 18.0163C7.64658 17.74 7.4878 17.3224 7.49367 16.7754C7.51132 15.658 8.417 14.6465 9.51682 14.6465H10.8224V13.7643H9.50502C7.99944 13.7643 6.76442 15.2345 6.7409 16.7636C6.72914 17.1341 6.79971 17.5046 6.93497 17.8458L6.99379 17.987L6.89968 17.8751C6.58089 17.4829 6.37832 17.0094 6.31497 16.5079C6.25159 16.0065 6.32996 15.4973 6.54118 15.0381C6.75238 14.579 7.08801 14.1882 7.50997 13.91C7.93195 13.6319 8.42341 13.4775 8.92866 13.4643H15.8801C18.3619 13.4702 20.4085 11.6529 20.4497 9.12414C20.4615 8.4184 20.3144 7.71267 20.0145 7.07752L20.0557 7.05988C20.6115 7.83971 20.9003 8.77835 20.879 9.73576C20.8714 10.3225 20.7479 10.9019 20.5158 11.4409C20.2836 11.9798 19.9474 12.4676 19.5263 12.8763C18.6795 13.6996 17.5502 13.7879 16.3859 13.7643H12.8807V14.6465H16.4741C17.8267 14.6465 19.1912 14.3642 20.2379 13.429C20.7693 12.9725 21.1999 12.4106 21.5026 11.7788C21.8052 11.1471 21.9734 10.4593 21.9963 9.75923C22.0235 8.99948 21.8997 8.24184 21.6323 7.53017C21.3648 6.8185 20.9588 6.16693 20.4379 5.61313ZM19.7086 9.08297C19.6616 11.2237 17.9562 12.5881 15.886 12.5881H8.91689C8.0465 12.5881 7.21139 13.1233 6.58211 13.7467C6.25841 14.0563 6.00006 14.4276 5.82227 14.8386C5.6445 15.2497 5.55091 15.6924 5.54704 16.1402C5.54115 16.6225 5.62938 17.1047 5.82345 17.5458L5.89403 17.7105L5.78229 17.5753C5.33537 16.988 5.10107 16.2664 5.11772 15.5286C5.12532 14.6761 5.46613 13.8605 6.06729 13.256C6.66846 12.6515 7.48225 12.3063 8.33467 12.294H10.8224V11.4118H8.32878C6.17631 11.4118 4.40024 13.3055 4.36494 15.4992C4.35441 16.0926 4.47489 16.6809 4.7178 17.2223L4.80014 17.4164L4.68252 17.2517C4.17909 16.5724 3.9163 15.7447 3.93562 14.8994C3.94645 13.8946 4.35235 12.9346 5.06553 12.2269C5.77872 11.5193 6.74184 11.1209 7.74656 11.1178H14.7039C15.357 11.1459 16.003 10.9741 16.5558 10.6251C17.1085 10.2763 17.5417 9.76691 17.7972 9.1653C17.9808 8.73709 18.0759 8.27621 18.077 7.81032C18.078 7.34443 17.9848 6.88313 17.8031 6.45413L17.7326 6.28946L17.8384 6.42472C18.1967 6.88614 18.4235 7.43579 18.4949 8.01554C18.5664 8.59529 18.4798 9.18356 18.2443 9.71806C18.0679 10.1122 17.8326 10.465 17.5209 10.759C16.9211 11.3472 16.1271 11.4059 15.2978 11.4118H12.8689L12.863 12.294H15.3096C16.327 12.294 17.3091 12.0352 18.056 11.306C18.4364 10.94 18.7401 10.5019 18.9491 10.0172C19.1581 9.53253 19.2684 9.01094 19.2735 8.48309C19.2839 7.88975 19.1635 7.30138 18.9206 6.75994L18.8382 6.56587L18.9617 6.73054C19.4612 7.41194 19.7236 8.23826 19.7086 9.08297ZM11.4105 12.294H12.5867V11.4118H11.4105V12.294Z" fill="white"/>
</svg>

<svg xmlns="http://www.w3.org/2000/svg" width="24" height="24" fill="none" viewBox="0 0 24 24">
    <path fill="#fff" d="M20.438 5.613c-1.176-1.205-2.923-1.847-5.058-1.847-2.505 0-3.94 1.53-3.97 3.97v2.13h1.177v-2.1c.017-1.035.511-2.235 1.717-2.235h.024c1.017.017 1.805.706 1.787 1.764-.017 1.1-.917 1.8-2.029 1.764H12.91l-.012.806 1.177.024h.058a2.705 2.705 0 0 0 2.57-3.735l-.058-.141.094.112c.389.489.597 1.098.588 1.723-.024 1.453-1.194 2.388-2.611 2.388H7.758c-1.176 0-2.31.552-3.17 1.393a4.63 4.63 0 0 0-.958 5.293l-.035.018a4.44 4.44 0 0 1-.824-2.682 4.46 4.46 0 0 1 4.487-4.393h3.564V9.06H7.17c-1.335 0-2.617.571-3.587 1.512A5.23 5.23 0 0 0 2 14.24c-.024 1.729.506 3.258 1.511 4.293 1.088 1.117 2.682 1.7 4.746 1.7q2.091-.002 3.176-1.283c.57-.682 1.135-1.634 1.153-2.681v-2.506H11.41v2.476c-.012.565-.46 1.118-.777 1.518a1.64 1.64 0 0 1-1.329.658 2.08 2.08 0 0 1-1.33-.4c-.328-.276-.487-.694-.481-1.24.017-1.118.923-2.13 2.023-2.13h1.305v-.882H9.505c-1.506 0-2.74 1.47-2.764 3-.012.37.059.74.194 1.082l.059.141-.094-.112a2.705 2.705 0 0 1 2.029-4.41h6.951c2.482.005 4.528-1.812 4.57-4.34a4.6 4.6 0 0 0-.435-2.047l.04-.018a4.44 4.44 0 0 1 .824 2.676 4.46 4.46 0 0 1-1.353 3.14c-.846.824-1.976.912-3.14.888H12.88v.883h3.593c1.353 0 2.717-.283 3.764-1.218a5.05 5.05 0 0 0 1.758-3.67 5.75 5.75 0 0 0-1.558-4.146m-.73 3.47c-.046 2.14-1.752 3.505-3.822 3.505h-6.97c-.87 0-1.705.535-2.334 1.159a3.35 3.35 0 0 0-1.035 2.393 3.4 3.4 0 0 0 .276 1.406l.071.165-.112-.136a3.26 3.26 0 0 1-.664-2.046 3.264 3.264 0 0 1 3.217-3.235h2.487v-.882H8.33c-2.153 0-3.929 1.893-3.964 4.087-.01.594.11 1.182.353 1.723l.082.194-.117-.164a3.8 3.8 0 0 1-.747-2.353 3.823 3.823 0 0 1 3.81-3.781h6.958a3.21 3.21 0 0 0 3.093-1.953 3.46 3.46 0 0 0 .006-2.71l-.07-.166.105.136a3.24 3.24 0 0 1 .406 3.293 3.2 3.2 0 0 1-.723 1.041c-.6.588-1.394.647-2.223.653h-2.43l-.005.882h2.447c1.017 0 2-.259 2.746-.988a3.97 3.97 0 0 0 1.217-2.823 4 4 0 0 0-.352-1.723l-.083-.194.124.165c.5.68.762 1.507.747 2.352m-8.297 3.211h1.176v-.882H11.41z"/>
</svg>
